assets/icons/bluetooth.svg

<svg width="25" height="25" viewBox="0 0 25 25" fill="none" xmlns="http://www.w3.org/2000/svg">
<g id="bluetooth">
<path id="iconDefault" fill-rule="evenodd" clip-rule="evenodd" d="M11.3871 1.73261C11.5989 1.62674 11.8523 1.64959 12.0416 1.79163L18.7083 6.79163C18.8657 6.90966 18.9583 7.09491 18.9583 7.29163C18.9583 7.48835 18.8657 7.6736 18.7083 7.79163L12.7083 12.2916L18.7083 16.7916C18.8657 16.9097 18.9583 17.0949 18.9583 17.2916C18.9583 17.4884 18.8657 17.6736 18.7083 17.7916L12.0416 22.7916C11.8523 22.9337 11.5989 22.9565 11.3871 22.8506C11.1754 22.7448 11.0416 22.5284 11.0416 22.2916V13.5416L5.37498 17.7916C5.09883 17.9987 4.70708 17.9428 4.49998 17.6666C4.29287 17.3905 4.34883 16.9987 4.62498 16.7916L10.625 12.2916L4.62498 7.79163C4.34883 7.58452 4.29287 7.19277 4.49998 6.91663C4.70708 6.64049 5.09883 6.58452 5.37498 6.79163L11.0416 11.0416V2.29163C11.0416 2.0549 11.1754 1.83848 11.3871 1.73261ZM12.2916 13.5416L17.2916 17.2916L12.2916 21.0416V13.5416ZM12.2916 11.0416V3.54163L17.2916 7.29163L12.2916 11.0416Z" fill="#18303F"/>
</g>
</svg>

<svg width="25" height="25" viewBox="0 0 25 25" fill="none"><g id="bluetooth"><path id="iconDefault" fill-rule="evenodd" clip-rule="evenodd" d="M11.387 1.733a.625.625 0 0 1 .655.059l6.666 5a.625.625 0 0 1 0 1l-6 4.5 6 4.5a.625.625 0 0 1 0 1l-6.666 5a.625.625 0 0 1-1-.5v-8.75l-5.667 4.25a.625.625 0 1 1-.75-1l6-4.5-6-4.5a.625.625 0 1 1 .75-1l5.667 4.25v-8.75c0-.237.133-.454.345-.56Zm.905 11.809 5 3.75-5 3.75v-7.5Zm0-2.5v-7.5l5 3.75-5 3.75Z" fill="#18303F"/></g></svg>
